X:1
T:Title
%%score 1 2
L:1/8
Q:1/4=96
M:4/4
K:Bb
V:1 treble nm="Grand Piano, Soprano"
V:2 bass nm="Choir Pad, Bass"
V:1
 [DF][DF][B,D][CE] [DF][DF] [DB]>[Dc] | [EB]2 [EA]2 [EA]4 | [EA][EA][CE][CE] [FA][FA] [EG]>[EA] | %3
w: By~Anthony~Johnson~Showalter * * * * * * *|||
 [DG]2 [B,D]2 [DF]4 | [DF][DF][B,D][CE] [DF][DF] [DB]>[DB] | [Ec]2 [EB]2 [EG]4 | %6
w: |||
 [GB][GB][FA][EG] [DF][DF] [DB]>[Ec] | [Fd]2 [Ec]2 [DB]4 | [Fc]3 [Fd] [Fc]F [EF]>[EF] | %9
w: |||
 [DB]2 [Ec]2 [Fd]4 | [Fd]3 [Fd] [Ge][Fd] [Ec]>[DB] | [Fc]2 [=Ec]2 [Fc]4 | [Fd]3 [Fd] [Ge] [Fd]3 | %13
w: ||||
 [Ff][Ff] [_Af]>[Af] [Ge]4 | [FB][FB][FB][Gc] [Fd]<[Fd] [DB]>[Ec] | [Fd]2 [Ec]2 [DB]4- | %16
w: |||
 [DB]4 z4 |] %17
w: |
V:2
 [B,,B,][B,,B,][B,,F,][B,,F,] [B,,B,] [B,,B,]3 | [C,F,][C,F,] [C,F,]>[C,F,] [C,F,]4 | %2
 F,F,[F,A,][F,A,] [F,C] [F,C]3 | [B,,B,][B,,B,] [B,,F,]>[B,,F,] [B,,B,]4 | %4
 [B,,B,][B,,B,][B,,F,][B,,F,] [B,,B,] [B,,B,]3 | [E,G,][E,G,] [E,G,]>[E,G,] [E,B,]4 | %6
 [E,B,][E,B,][E,B,][E,B,] [F,B,] [F,B,]3 | [F,B,][F,B,] [F,A,]>[F,A,] [B,,B,]4 | %8
 [F,A,][F,A,][F,A,][F,A,] [F,A,] [F,A,]3 | [B,,B,][B,,B,] [B,,F,]>[B,,F,] [B,,B,]4 | %10
 B,B,B,B, B, B,3 | [F,A,][F,A,] [C,G,]>[C,G,] [F,A,]4 | %12
 [B,,B,][B,,B,][B,,B,][B,,B,] [B,,B,] [B,,B,]3 | [D,B,][D,B,] [D,B,]>[D,B,] [E,B,]4 | %14
 [D,B,][D,B,][D,B,][E,B,] [F,B,]<[F,B,] [G,B,]>[G,B,] | [F,B,]2 [F,A,]2 [B,,B,]4- | [B,,B,]4 z4 |] %17

